;FLAVOR:Marlin
;TIME:11534
;Filament used: 10.137m
;Layer height: 0.2
;MINX:49.129
;MINY:60.557
;MINZ:0.2
;MAXX:160.872
;MAXY:149.441
;MAXZ:22.4
;Generated with Cura_SteamEngine 4.8.0
M140 S60
M105
M190 S60
M104 S220
M105
M109 S220
M82 ;absolute extrusion mode
G21 ;metric values
G90 ;absolute positioning
M82 ;set extruder to absolute mode
M107 ;start with the fan off
G28 X0 Y0 ;move X/Y to min endstops
G28 Z0 ;move Z to min endstops
G1 Z15.0 F100 ;move the platform down 15mm
G92 E0 ;zero the extruded length
G1 F200 E3 ;extrude 3mm of feed stock
G92 E0 ;zero the extruded length again
G1 F100
G0 Y20 F100
M117 Printing...
G5
G92 E0
G92 E0
G1 F2400 E-6
;LAYER_COUNT:112
;LAYER:0
M106 S255
M204 S3000
M205 X10 Y10
G1 F600 Z0.275
G0 F3000 X52.052 Y62.086 Z0.275
M204 S1800
M205 X8 Y8
;TYPE:SKIRT
G1 F600 Z0.2
G1 F2400 E0
G1 X52.796 Y61.611 E0.0411
G1 X53.326 Y61.333 E0.06897
G1 X53.522 Y61.237 E0.07913
G1 X54.135 Y60.981 E0.11007
G1 X54.674 Y60.823 E0.13622
G1 X55.271 Y60.7 E0.1646
G1 X55.622 Y60.646 E0.18114
G1 X56.352 Y60.583 E0.21526
G1 X57.575 Y60.56 E0.27222
G1 X63.668 Y60.56 E0.55593
G1 X64.759 Y60.557 E0.60673
G1 X152.734 Y60.561 E4.70322
G1 X153.536 Y60.573 E4.74057
G1 X154.148 Y60.616 E4.76913
G1 X154.985 Y60.75 E4.8086
G1 X155.63 Y60.906 E4.8395
G1 X156.322 Y61.17 E4.87399
G1 X156.774 Y61.385 E4.8973
G1 X157.153 Y61.582 E4.91719
G1 X157.723 Y61.923 E4.94812
G1 X158.425 Y62.493 E4.99022
G1 X158.684 Y62.741 E5.00692
G1 X159.135 Y63.228 E5.03783
G1 X159.584 Y63.843 E5.07328
G1 X160.022 Y64.588 E5.11353
G1 X160.203 Y64.96 E5.13279
G1 X160.457 Y65.574 E5.16373
G1 X160.65 Y66.281 E5.19785
G1 X160.799 Y67.161 E5.23941
G1 X160.855 Y67.75 E5.26696
G1 X160.864 Y68.022 E5.27964
G1 X160.869 Y68.582 E5.30571
G1 X160.864 Y74.993 E5.60424
G1 X160.872 Y75.119 E5.61012
G1 X160.87 Y76.199 E5.66041
G1 X160.871 Y133.835 E8.34418
G1 X160.867 Y135.054 E8.40094
G1 X160.869 Y135.336 E8.41407
G1 X160.867 Y141.371 E8.69509
G1 X160.856 Y142.094 E8.72876
G1 X160.815 Y142.691 E8.75662
G1 X160.704 Y143.417 E8.79082
G1 X160.553 Y144.058 E8.82148
G1 X160.486 Y144.282 E8.83237
G1 X160.185 Y145.066 E8.87148
G1 X159.844 Y145.727 E8.90611
G1 X159.496 Y146.293 E8.93705
G1 X158.925 Y146.981 E8.97868
G1 X158.488 Y147.423 E9.00762
G1 X158.345 Y147.559 E9.01681
G1 X157.837 Y147.987 E9.04774
G1 X157.114 Y148.443 E9.08754
G1 X156.485 Y148.763 E9.12041
G1 X155.872 Y149.02 E9.15136
G1 X154.995 Y149.248 E9.19355
G1 X154.46 Y149.338 E9.21881
G1 X154.191 Y149.376 E9.23146
G1 X153.564 Y149.428 E9.26076
G1 X153.032 Y149.44 E9.28554
G1 X146.43 Y149.433 E9.59295
G1 X146.322 Y149.44 E9.59799
G1 X64.744 Y149.441 E13.39661
G1 X63.332 Y149.439 E13.46236
G1 X57.252 Y149.439 E13.74547
G1 X56.45 Y149.427 E13.78282
G1 X55.797 Y149.378 E13.81331
G1 X54.98 Y149.243 E13.85187
G1 X54.335 Y149.084 E13.8828
G1 X53.608 Y148.801 E13.91913
G1 X52.824 Y148.403 E13.96007
G1 X52.257 Y148.058 E13.99097
G1 X51.561 Y147.483 E14.03301
G1 X51.017 Y146.922 E14.0694
G1 X50.592 Y146.411 E14.10035
G1 X50.19 Y145.776 E14.13534
G1 X49.815 Y145.057 E14.1731
G1 X49.554 Y144.447 E14.204
G1 X49.32 Y143.582 E14.24572
G1 X49.205 Y142.903 E14.27779
G1 X49.139 Y142.116 E14.31456
G1 X49.131 Y141.348 E14.35033
G1 X49.139 Y134.969 E14.64736
G1 X49.133 Y134.873 E14.65184
G1 X49.138 Y133.595 E14.71135
G1 X49.13 Y132.731 E14.75158
G1 X49.129 Y76.172 E17.38521
G1 X49.131 Y74.76 E17.45095
G1 X49.132 Y68.569 E17.73923
G1 X49.141 Y67.962 E17.7675
G1 X49.19 Y67.305 E17.79818
G1 X49.279 Y66.646 E17.82914
G1 X49.407 Y65.995 E17.86004
G1 X49.613 Y65.363 E17.89099
G1 X49.883 Y64.769 E17.92137
G1 X50.199 Y64.177 E17.95262
G1 X50.553 Y63.615 E17.98355
G1 X51.008 Y63.059 E18.017
G1 X51.547 Y62.518 E18.05256
G1 X52.052 Y62.086 E18.0835
M204 S3000
M205 X10 Y10
G0 F3000 X52.416 Y62.513
M204 S1800
M205 X8 Y8
G1 F2400 X53.058 Y62.106 E18.1189
G1 X53.572 Y61.836 E18.14594
G1 X53.768 Y61.74 E18.1561
G1 X54.35 Y61.499 E18.18543
G1 X54.964 Y61.33 E18.21508
G1 X55.707 Y61.2 E18.25021
G1 X56.363 Y61.143 E18.28087
G1 X57.575 Y61.12 E18.33731
G1 X63.669 Y61.12 E18.62108
G1 X64.759 Y61.117 E18.67183
G1 X152.734 Y61.121 E22.76832
G1 X153.527 Y61.133 E22.80524
G1 X154.077 Y61.172 E22.83092
G1 X154.886 Y61.301 E22.86907
G1 X155.498 Y61.451 E22.89841
G1 X156.088 Y61.679 E22.92786
G1 X156.895 Y62.079 E22.9698
G1 X157.434 Y62.404 E22.99911
G1 X158.037 Y62.897 E23.03538
G1 X158.296 Y63.145 E23.05207
G1 X158.723 Y63.609 E23.08143
G1 X159.125 Y64.164 E23.11334
G1 X159.518 Y64.833 E23.14947
G1 X159.699 Y65.205 E23.16874
G1 X159.938 Y65.787 E23.19803
G1 X160.101 Y66.392 E23.22721
G1 X160.245 Y67.245 E23.26749
G1 X160.296 Y67.773 E23.29219
G1 X160.304 Y68.028 E23.30407
G1 X160.309 Y68.582 E23.32987
G1 X160.304 Y75.026 E23.62993
G1 X160.312 Y75.118 E23.63423
G1 X160.31 Y76.198 E23.68452
G1 X160.311 Y133.833 E26.36824
G1 X160.307 Y135.116 E26.42799
G1 X160.309 Y135.336 E26.43823
G1 X160.307 Y141.362 E26.71883
G1 X160.296 Y142.085 E26.7525
G1 X160.259 Y142.622 E26.77756
G1 X160.152 Y143.322 E26.81053
G1 X160.017 Y143.897 E26.83804
G1 X159.95 Y144.121 E26.84892
G1 X159.679 Y144.826 E26.88409
G1 X159.35 Y145.463 E26.91748
G1 X159.019 Y145.998 E26.94677
G1 X158.525 Y146.589 E26.98264
G1 X158.102 Y147.017 E27.01066
G1 X157.959 Y147.153 E27.01985
G1 X157.476 Y147.557 E27.04917
G1 X156.853 Y147.947 E27.08339
G1 X156.238 Y148.261 E27.11555
G1 X155.657 Y148.502 E27.14484
G1 X154.899 Y148.696 E27.18127
G1 X154.382 Y148.783 E27.20568
G1 X154.113 Y148.821 E27.21833
G1 X153.549 Y148.868 E27.24469
G1 X153.033 Y148.88 E27.26872
G1 X146.401 Y148.873 E27.57753
G1 X146.322 Y148.88 E27.58123
G1 X64.745 Y148.881 E31.37979
G1 X63.333 Y148.879 E31.44554
G1 X57.252 Y148.879 E31.7287
G1 X56.459 Y148.867 E31.76563
G1 X55.872 Y148.823 E31.79304
G1 X55.08 Y148.692 E31.83042
G1 X54.469 Y148.54 E31.85974
G1 X53.848 Y148.295 E31.89082
G1 X53.087 Y147.909 E31.93055
G1 X52.55 Y147.579 E31.9599
G1 X51.951 Y147.082 E31.99615
G1 X51.425 Y146.539 E32.03135
G1 X51.025 Y146.054 E32.06062
G1 X50.682 Y145.509 E32.09061
G1 X50.316 Y144.806 E32.12751
G1 X50.07 Y144.227 E32.15681
G1 X49.871 Y143.481 E32.19276
G1 X49.758 Y142.817 E32.22412
G1 X49.699 Y142.11 E32.25716
G1 X49.691 Y141.349 E32.29259
G1 X49.699 Y134.944 E32.59084
G1 X49.693 Y134.875 E32.59406
G1 X49.698 Y133.589 E32.65394
G1 X49.69 Y132.731 E32.6939
G1 X49.689 Y76.173 E35.32747
G1 X49.691 Y74.761 E35.39322
G1 X49.692 Y68.577 E35.68118
G1 X49.701 Y67.97 E35.70944
G1 X49.745 Y67.38 E35.73699
G1 X49.834 Y66.721 E35.76796
G1 X49.957 Y66.104 E35.79725
G1 X50.284 Y65.226 E35.84088
G1 X50.69 Y64.446 E35.88183
G1 X51.027 Y63.914 E35.91115
G1 X51.417 Y63.442 E35.93966
G1 X51.937 Y62.921 E35.97394
G1 X52.416 Y62.513 E36.00323
M204 S3000
M205 X10 Y10
G0 F3000 X52.779 Y62.941
M204 S1800
M205 X8 Y8
G1 F2400 X53.321 Y62.6 E36.03305
G1 X53.819 Y62.339 E36.05923
G1 X54.015 Y62.243 E36.06939
G1 X54.563 Y62.018 E36.09698
G1 X55.093 Y61.875 E36.12254
G1 X55.792 Y61.753 E36.15558
G1 X56.374 Y61.703 E36.18278
G1 X57.575 Y61.68 E36.23871
G1 X63.671 Y61.68 E36.52257
G1 X64.759 Y61.677 E36.57323
G1 X152.734 Y61.681 E40.66972
G1 X153.518 Y61.693 E40.70623
G1 X154.172 Y61.748 E40.73679
G1 X154.788 Y61.853 E40.76588
G1 X155.363 Y61.996 E40.79347
G1 X155.853 Y62.187 E40.81796
G1 X156.636 Y62.576 E40.85867
G1 X157.143 Y62.884 E40.8863
G1 X157.65 Y63.302 E40.91689
G1 X157.909 Y63.55 E40.93359
G1 X158.474 Y64.209 E40.97401
G1 X158.666 Y64.484 E40.98963
G1 X159.015 Y65.078 E41.02171
G1 X159.196 Y65.45 E41.04097
G1 X159.418 Y65.999 E41.06855
G1 X159.552 Y66.503 E41.09283
G1 X159.691 Y67.328 E41.13179
G1 X159.74 Y67.892 E41.15815
G1 X159.744 Y68.033 E41.16472
G1 X159.749 Y68.581 E41.19024
G1 X159.744 Y74.936 E41.48615
G1 X159.752 Y75.117 E41.49459
G1 X159.75 Y76.197 E41.54488
G1 X159.751 Y133.832 E44.2286
G1 X159.747 Y135.115 E44.28835
G1 X159.749 Y135.336 E44.29864
G1 X159.747 Y141.354 E44.57886
G1 X159.736 Y142.077 E44.61253
G1 X159.681 Y142.73 E44.64304
G1 X159.601 Y143.226 E44.66644
G1 X159.48 Y143.737 E44.69089
G1 X159.413 Y143.961 E44.70178
G1 X159.173 Y144.586 E44.73295
G1 X158.856 Y145.199 E44.76509
G1 X158.542 Y145.702 E44.7927
G1 X158.124 Y146.198 E44.8229
G1 X157.716 Y146.611 E44.84993
G1 X157.573 Y146.747 E44.85912
G1 X157.117 Y147.126 E44.88673
G1 X156.592 Y147.452 E44.91551
G1 X155.991 Y147.758 E44.94691
G1 X155.443 Y147.983 E44.9745
G1 X154.803 Y148.144 E45.00523
G1 X154.303 Y148.229 E45.02884
G1 X154.034 Y148.267 E45.04149
G1 X153.534 Y148.308 E45.06485
G1 X153.033 Y148.32 E45.08819
G1 X146.476 Y148.313 E45.39351
G1 X146.322 Y148.32 E45.40069
G1 X64.746 Y148.321 E49.19921
G1 X63.334 Y148.319 E49.26496
G1 X57.252 Y148.319 E49.54816
G1 X56.468 Y148.307 E49.58467
G1 X55.946 Y148.268 E49.60905
G1 X55.181 Y148.141 E49.64515
G1 X54.606 Y147.995 E49.67278
G1 X54.088 Y147.789 E49.69874
G1 X53.349 Y147.414 E49.73732
G1 X52.845 Y147.102 E49.76493
G1 X52.341 Y146.68 E49.79553
G1 X51.834 Y146.156 E49.82948
G1 X51.458 Y145.697 E49.85711
G1 X51.174 Y145.242 E49.88209
G1 X50.816 Y144.555 E49.91816
G1 X50.587 Y144.008 E49.94577
G1 X50.422 Y143.379 E49.97605
G1 X50.312 Y142.731 E50.00666
G1 X50.259 Y142.103 E50.03601
G1 X50.251 Y141.35 E50.07107
G1 X50.259 Y135.014 E50.3661
G1 X50.253 Y134.877 E50.37249
G1 X50.258 Y133.584 E50.43269
G1 X50.25 Y132.731 E50.47242
G1 X50.249 Y76.174 E53.10595
G1 X50.251 Y74.762 E53.17169
G1 X50.251 Y68.586 E53.45928
G1 X50.26 Y67.979 E53.48754
G1 X50.3 Y67.455 E53.51201
G1 X50.389 Y66.796 E53.54298
G1 X50.507 Y66.215 E53.57058
G1 X50.788 Y65.47 E53.60766
G1 X51.181 Y64.715 E53.64729
G1 X51.501 Y64.216 E53.6749
G1 X51.826 Y63.825 E53.69857
G1 X52.326 Y63.323 E53.73156
G1 X52.779 Y62.941 E53.75916
M204 S3000
M205 X10 Y10
G0 F3000 X53.14 Y63.37
M204 S1800
M205 X8 Y8
G1 F2400 X53.584 Y63.095 E53.78347
G1 X54.065 Y62.841 E53.8088
G1 X54.261 Y62.745 E53.81896
G1 X54.775 Y62.538 E53.84477
G1 X55.526 Y62.361 E53.88069
G1 X55.877 Y62.307 E53.89723
G1 X56.385 Y62.263 E53.92097
G1 X57.575 Y62.24 E53.9764
G1 X63.672 Y62.24 E54.2603
G1 X64.759 Y62.237 E54.31091
G1 X152.793 Y62.241 E58.41015
G1 X153.51 Y62.252 E58.44354
G1 X154.101 Y62.304 E58.47116
G1 X154.689 Y62.404 E58.49893
G1 X155.226 Y62.541 E58.52474
G1 X155.834 Y62.795 E58.55542
G1 X156.378 Y63.073 E58.58387
G1 X156.85 Y63.363 E58.60966
G1 X157.263 Y63.706 E58.63466
G1 X157.522 Y63.954 E58.65136
G1 X158.015 Y64.53 E58.68666
G1 X158.207 Y64.805 E58.70228
G1 X158.511 Y65.323 E58.73025
G1 X158.692 Y65.695 E58.74951
G1 X158.898 Y66.209 E58.7753
G1 X159.041 Y66.802 E58.8037
G1 X159.137 Y67.411 E58.83241
G1 X159.181 Y67.915 E58.85597
G1 X159.189 Y68.54 E58.88507
G1 X159.184 Y74.99 E59.18541
G1 X159.192 Y75.116 E59.19129
G1 X159.19 Y76.196 E59.24158
G1 X159.191 Y133.83 E61.92526
G1 X159.187 Y135.113 E61.985
G1 X159.189 Y135.336 E61.99539
G1 X159.188 Y141.345 E62.27519
G1 X159.177 Y142.068 E62.30886
G1 X159.126 Y142.661 E62.33657
G1 X158.944 Y143.576 E62.38001
G1 X158.877 Y143.8 E62.3909
G1 X158.667 Y144.346 E62.41814
G1 X158.362 Y144.935 E62.44903
G1 X158.067 Y145.403 E62.47479
G1 X157.723 Y145.807 E62.49949
G1 X157.33 Y146.206 E62.52557
G1 X157.187 Y146.342 E62.53476
G1 X156.759 Y146.693 E62.56054
G1 X156.331 Y146.956 E62.58393
G1 X155.744 Y147.256 E62.61462
G1 X155.231 Y147.463 E62.64038
G1 X154.708 Y147.592 E62.66546
G1 X153.956 Y147.712 E62.70092
G1 X153.139 Y147.759 E62.73903
G1 X146.43 Y147.753 E63.05143
G1 X146.322 Y147.76 E63.05647
G1 X64.747 Y147.761 E66.85494
G1 X63.335 Y147.759 E66.92069
G1 X57.193 Y147.759 E67.20669
G1 X56.476 Y147.748 E67.24008
G1 X55.858 Y147.691 E67.26898
G1 X55.282 Y147.59 E67.29621
G1 X54.746 Y147.452 E67.32198
G1 X54.115 Y147.182 E67.35394
G1 X53.611 Y146.919 E67.38041
G1 X53.142 Y146.625 E67.40619
G1 X52.732 Y146.279 E67.43117
G1 X52.242 Y145.773 E67.46396
G1 X51.893 Y145.343 E67.48975
G1 X51.518 Y144.7 E67.52441
G1 X51.317 Y144.304 E67.54509
G1 X51.105 Y143.792 E67.5709
G1 X50.973 Y143.278 E67.59561
G1 X50.865 Y142.644 E67.62555
G1 X50.819 Y142.097 E67.65111
G1 X50.811 Y141.35 E67.6859
G1 X50.819 Y134.974 E67.98279
G1 X50.813 Y134.879 E67.98722
G1 X50.818 Y133.578 E68.04781
G1 X50.81 Y132.731 E68.08725
G1 X50.809 Y76.175 E70.72073
G1 X50.811 Y74.763 E70.78648
G1 X50.811 Y68.594 E71.07373
G1 X50.82 Y67.987 E71.102
G1 X50.855 Y67.53 E71.12334
G1 X50.944 Y66.871 E71.15431
G1 X51.057 Y66.329 E71.18009
G1 X51.292 Y65.713 E71.21079
G1 X51.672 Y64.985 E71.24903
G1 X51.973 Y64.519 E71.27486
G1 X52.337 Y64.098 E71.30077
G1 X52.715 Y63.726 E71.32547
G1 X53.14 Y63.37 E71.35128
M204 S3000
M205 X10 Y10
G0 F3000 X53.499 Y63.802
M204 S1800
M205 X8 Y8
G1 F2400 X54.215 Y63.393 E71.38968
G1 X54.507 Y63.248 E71.40486
G1 X55.192 Y63.003 E71.43874
G1 X55.962 Y62.86 E71.4752
G1 X56.396 Y62.823 E71.49549
G1 X57.575 Y62.8 E71.5504
G1 X63.674 Y62.8 E71.83439
G1 X64.759 Y62.797 E71.88491
G1 X152.784 Y62.801 E75.98373
G1 X153.501 Y62.812 E76.01712
G1 X154.03 Y62.859 E76.04185
G1 X154.59 Y62.955 E76.0683
G1 X155.086 Y63.084 E76.09217
G1 X155.6 Y63.304 E76.1182
G1 X156.12 Y63.57 E76.1454
G1 X156.554 Y63.84 E76.1692
G1 X157.134 Y64.359 E76.20544
G1 X157.555 Y64.85 E76.23556
G1 X157.747 Y65.125 E76.25117
G1 X158.007 Y65.568 E76.27509
G1 X158.188 Y65.94 E76.29436
G1 X158.376 Y66.416 E76.31819
G1 X158.492 Y66.913 E76.34195
G1 X158.584 Y67.494 E76.36934
G1 X158.624 Y68.044 E76.39502
G1 X158.629 Y68.581 E76.42003
G1 X158.624 Y75.017 E76.71971
G1 X158.632 Y75.115 E76.72429
G1 X158.63 Y76.195 E76.77458
G1 X158.631 Y133.828 E79.45821
G1 X158.627 Y135.111 E79.51796
G1 X158.629 Y135.336 E79.52843
G1 X158.628 Y141.337 E79.80787
G1 X158.617 Y142.06 E79.84154
G1 X158.57 Y142.592 E79.8664
G1 X158.407 Y143.416 E79.90552
G1 X158.161 Y144.106 E79.93963
G1 X157.868 Y144.671 E79.96926
G1 X157.593 Y145.102 E79.99307
G1 X157.031 Y145.715 E80.03179
G1 X156.801 Y145.936 E80.04665
G1 X156.404 Y146.258 E80.07045
G1 X155.81 Y146.598 E80.10232
G1 X155.497 Y146.753 E80.11858
G1 X155.022 Y146.942 E80.14239
G1 X154.249 Y147.104 E80.17916
G1 X153.505 Y147.189 E80.21403
G1 X153.035 Y147.2 E80.23592
G1 X146.406 Y147.193 E80.5446
G1 X146.322 Y147.2 E80.54852
G1 X64.747 Y147.201 E84.347
G1 X63.335 Y147.199 E84.41274
G1 X57.202 Y147.199 E84.69832
G1 X56.485 Y147.188 E84.73171
G1 X55.933 Y147.137 E84.75753
G1 X55.383 Y147.039 E84.78354
G1 X54.888 Y146.908 E84.80738
G1 X54.355 Y146.676 E84.83445
G1 X53.873 Y146.424 E84.85978
G1 X53.441 Y146.15 E84.8836
G1 X53.013 Y145.771 E84.91022
G1 X52.651 Y145.39 E84.93469
G1 X52.331 Y144.99 E84.95854
G1 X52.01 Y144.434 E84.98844
G1 X51.817 Y144.053 E85.00832
G1 X51.624 Y143.579 E85.03215
G1 X51.474 Y142.91 E85.06408
G1 X51.379 Y142.091 E85.10247
G1 X51.371 Y141.351 E85.13693
G1 X51.379 Y134.955 E85.43476
G1 X51.373 Y134.881 E85.43821
G1 X51.378 Y133.528 E85.50121
G1 X51.37 Y132.731 E85.53833
G1 X51.369 Y76.175 E88.17181
G1 X51.371 Y74.763 E88.23756
G1 X51.371 Y68.602 E88.52444
G1 X51.38 Y67.995 E88.55271
G1 X51.41 Y67.605 E88.57092
G1 X51.499 Y66.946 E88.60189
G1 X51.606 Y66.446 E88.6257
G1 X51.796 Y65.957 E88.65013
G1 X52.163 Y65.254 E88.68705
G1 X52.443 Y64.826 E88.71087
G1 X52.861 Y64.364 E88.73988
G1 X53.105 Y64.128 E88.75569
G1 X53.499 Y63.802 E88.7795
M204 S3000
M205 X10 Y10
G0 F3000 X53.494 Y64.531
M204 S1800
M205 X8 Y8
G1 F2400 X54.109 Y64.084 E88.8149
G1 X54.558 Y63.847 E88.83854
G1 X54.754 Y63.751 E88.8487
G1 X55.321 Y63.548 E88.87675
G1 X56.047 Y63.414 E88.91112
G1 X56.407 Y63.383 E88.92795
G1 X57.575 Y63.36 E88.98235
G1 X63.675 Y63.36 E89.26639
G1 X64.759 Y63.357 E89.31686
G1 X152.776 Y63.361 E93.4153
G1 X153.493 Y63.372 E93.44869
G1 X154.095 Y63.435 E93.47688
G1 X154.492 Y63.506 E93.49566
G1 X155.151 Y63.713 E93.52782
G1 X155.861 Y64.067 E93.56476
G1 X156.255 Y64.316 E93.58647
G1 X156.747 Y64.763 E93.61742
G1 X157.096 Y65.171 E93.64242
G1 X157.504 Y65.813 E93.67784
G1 X157.685 Y66.185 E93.6971
G1 X157.905 Y66.836 E93.7291
G1 X158.03 Y67.578 E93.76414
G1 X158.064 Y68.05 E93.78617
G1 X158.069 Y68.58 E93.81085
G1 X158.064 Y75.033 E94.11133
G1 X158.072 Y75.114 E94.11512
G1 X158.07 Y76.194 E94.16541
G1 X158.071 Y133.826 E96.849
G1 X158.067 Y135.109 E96.90874
G1 X158.069 Y135.335 E96.91927
G1 X158.068 Y141.328 E97.19832
G1 X158.057 Y142.051 E97.23199
