;FLAVOR:Marlin
;TIME:6565
;Filament used: 6.34508m
;Layer height: 0.2
;MINX:49.127
;MINY:60.557
;MINZ:0.2
;MAXX:160.873
;MAXY:149.443
;MAXZ:9
;Generated with Cura_SteamEngine 4.8.0
M140 S60
M105
M190 S60
M104 S220
M105
M109 S220
M82 ;absolute extrusion mode
G21 ;metric values
G90 ;absolute positioning
M82 ;set extruder to absolute mode
M107 ;start with the fan off
G28 X0 Y0 ;move X/Y to min endstops
G28 Z0 ;move Z to min endstops
G1 Z15.0 F100 ;move the platform down 15mm
G92 E0 ;zero the extruded length
G1 F200 E3 ;extrude 3mm of feed stock
G92 E0 ;zero the extruded length again
G1 F100
G0 Y20 F100
M117 Printing...
G5
G92 E0
G92 E0
G1 F2400 E-6
;LAYER_COUNT:45
;LAYER:0
M106 S255
M204 S3000
M205 X10 Y10
G1 F600 Z0.275
G0 F3000 X52.122 Y62.046 Z0.275
M204 S1800
M205 X8 Y8
;TYPE:SKIRT
G1 F600 Z0.2
G1 F2400 E0
G1 X52.856 Y61.583 E0.04041
G1 X53.462 Y61.268 E0.07221
G1 X53.584 Y61.209 E0.07852
G1 X54.198 Y60.956 E0.10944
G1 X55.069 Y60.735 E0.15129
G1 X55.567 Y60.653 E0.17479
G1 X55.704 Y60.634 E0.18123
G1 X56.351 Y60.583 E0.21145
G1 X57.56 Y60.56 E0.26776
G1 X65.469 Y60.56 E0.63603
G1 X66.559 Y60.557 E0.68679
G1 X152.735 Y60.561 E4.6995
G1 X153.526 Y60.573 E4.73634
G1 X154.135 Y60.616 E4.76477
G1 X154.995 Y60.752 E4.80531
G1 X155.641 Y60.908 E4.83626
G1 X156.322 Y61.166 E4.87016
G1 X157.063 Y61.532 E4.90865
G1 X157.634 Y61.871 E4.93957
G1 X158.362 Y62.463 E4.98326
G1 X158.751 Y62.838 E5.00842
G1 X158.955 Y63.045 E5.02195
G1 X159.384 Y63.552 E5.05288
G1 X159.847 Y64.286 E5.09329
G1 X160.147 Y64.859 E5.12341
G1 X160.206 Y64.979 E5.12963
G1 X160.462 Y65.592 E5.16057
G1 X160.696 Y66.502 E5.20432
G1 X160.793 Y67.114 E5.23317
G1 X160.847 Y67.779 E5.26424
G1 X160.87 Y68.99 E5.32064
G1 X160.87 Y76.914 E5.68961
G1 X160.873 Y77.989 E5.73967
G1 X160.869 Y141.291 E8.68727
G1 X160.859 Y142.008 E8.72066
G1 X160.81 Y142.672 E8.75167
G1 X160.723 Y143.314 E8.78183
G1 X160.594 Y143.966 E8.81278
G1 X160.388 Y144.597 E8.84369
G1 X160.04 Y145.351 E8.88236
G1 X159.875 Y145.674 E8.89925
G1 X159.535 Y146.245 E8.93019
G1 X158.935 Y146.98 E8.97437
G1 X158.548 Y147.374 E9.00009
G1 X158.423 Y147.495 E9.00819
G1 X157.919 Y147.928 E9.03913
G1 X157.155 Y148.414 E9.08129
G1 X156.701 Y148.653 E9.10518
G1 X156.096 Y148.926 E9.13609
G1 X155.451 Y149.135 E9.16766
G1 X154.63 Y149.316 E9.20681
G1 X154.198 Y149.377 E9.22712
G1 X153.609 Y149.428 E9.25465
G1 X153.186 Y149.439 E9.27436
G1 X144.531 Y149.44 E9.67737
G1 X143.441 Y149.443 E9.72812
G1 X57.235 Y149.439 E13.74224
G1 X56.443 Y149.427 E13.77912
G1 X55.836 Y149.384 E13.80746
G1 X55.011 Y149.252 E13.84636
G1 X54.337 Y149.086 E13.87868
G1 X54.302 Y149.075 E13.88039
G1 X53.52 Y148.762 E13.91961
G1 X52.822 Y148.399 E13.95625
G1 X52.627 Y148.283 E13.96681
G1 X52.077 Y147.91 E13.99776
G1 X51.663 Y147.556 E14.02312
G1 X51.245 Y147.162 E14.04987
G1 X50.79 Y146.678 E14.0808
G1 X50.468 Y146.252 E14.10566
G1 X50.436 Y146.205 E14.10831
G1 X50.089 Y145.621 E14.13994
G1 X49.783 Y145.005 E14.17197
G1 X49.532 Y144.39 E14.2029
G1 X49.343 Y143.687 E14.2368
G1 X49.196 Y142.791 E14.27908
G1 X49.142 Y142.167 E14.30824
G1 X49.131 Y141.699 E14.33004
G1 X49.13 Y133.087 E14.73105
G1 X49.127 Y132.011 E14.78115
G1 X49.131 Y68.678 E17.7302
G1 X49.142 Y67.922 E17.76541
G1 X49.182 Y67.336 E17.79276
G1 X49.254 Y66.82 E17.81702
G1 X49.327 Y66.415 E17.83618
G1 X49.483 Y65.769 E17.86713
G1 X49.758 Y65.058 E17.90263
G1 X50.114 Y64.346 E17.93969
G1 X50.456 Y63.776 E17.97065
G1 X51.035 Y63.066 E18.01331
G1 X51.408 Y62.679 E18.03833
G1 X51.615 Y62.475 E18.05187
G1 X52.122 Y62.046 E18.08279
M204 S3000
M205 X10 Y10
G0 F3000 X52.483 Y62.475
M204 S1800
M205 X8 Y8
G1 F2400 X53.116 Y62.079 E18.11756
G1 X53.706 Y61.772 E18.14853
G1 X53.828 Y61.713 E18.15484
G1 X54.411 Y61.475 E18.18416
G1 X55.162 Y61.287 E18.22021
G1 X55.781 Y61.189 E18.24939
G1 X56.363 Y61.143 E18.27658
G1 X57.56 Y61.12 E18.33232
G1 X65.47 Y61.12 E18.70065
G1 X66.559 Y61.117 E18.75136
G1 X152.735 Y61.121 E22.76407
G1 X153.517 Y61.133 E22.80049
G1 X154.065 Y61.172 E22.82607
G1 X154.897 Y61.304 E22.8653
G1 X155.509 Y61.453 E22.89463
G1 X156.089 Y61.675 E22.92354
G1 X156.806 Y62.029 E22.96078
G1 X157.346 Y62.353 E22.9901
G1 X157.973 Y62.866 E23.02782
G1 X158.362 Y63.241 E23.05298
G1 X158.55 Y63.431 E23.06543
G1 X158.955 Y63.913 E23.09474
G1 X159.351 Y64.546 E23.12951
G1 X159.644 Y65.107 E23.15898
G1 X159.703 Y65.227 E23.16521
G1 X159.944 Y65.808 E23.1945
G1 X160.144 Y66.595 E23.23231
G1 X160.239 Y67.193 E23.2605
G1 X160.287 Y67.79 E23.28839
G1 X160.31 Y68.99 E23.34428
G1 X160.31 Y76.914 E23.71325
G1 X160.313 Y77.989 E23.76331
G1 X160.309 Y141.36 E26.71413
G1 X160.3 Y142.001 E26.74398
G1 X160.255 Y142.597 E26.77181
G1 X160.168 Y143.239 E26.80198
G1 X160.044 Y143.856 E26.83128
G1 X159.716 Y144.738 E26.8751
G1 X159.478 Y145.224 E26.9003
G1 X159.378 Y145.417 E26.91042
G1 X159.053 Y145.956 E26.93973
G1 X158.533 Y146.59 E26.97791
G1 X158.159 Y146.972 E27.0028
G1 X158.034 Y147.093 E27.0109
G1 X157.555 Y147.501 E27.0402
G1 X156.895 Y147.918 E27.07656
G1 X156.441 Y148.157 E27.10045
G1 X155.866 Y148.414 E27.12977
G1 X155.29 Y148.599 E27.15794
G1 X154.551 Y148.761 E27.19317
G1 X154.119 Y148.822 E27.21349
G1 X153.591 Y148.868 E27.23817
G1 X153.186 Y148.879 E27.25703
G1 X144.53 Y148.88 E27.66009
G1 X143.441 Y148.883 E27.7108
G1 X57.235 Y148.879 E31.72491
G1 X56.452 Y148.867 E31.76138
G1 X55.906 Y148.829 E31.78686
G1 X55.111 Y148.701 E31.82436
G1 X54.505 Y148.552 E31.85342
G1 X54.47 Y148.541 E31.85512
G1 X53.767 Y148.259 E31.89039
G1 X53.108 Y147.918 E31.92494
G1 X52.913 Y147.802 E31.93551
G1 X52.394 Y147.446 E31.96482
G1 X52.047 Y147.148 E31.98611
G1 X51.629 Y146.754 E32.01286
G1 X51.199 Y146.294 E32.04218
G1 X50.899 Y145.889 E32.06565
G1 X50.587 Y145.365 E32.09405
G1 X50.288 Y144.762 E32.12539
G1 X50.051 Y144.178 E32.15474
G1 X49.892 Y143.578 E32.18364
G1 X49.751 Y142.711 E32.22454
G1 X49.702 Y142.15 E32.25076
G1 X49.691 Y141.699 E32.27177
G1 X49.69 Y133.087 E32.67278
G1 X49.687 Y132.011 E32.72288
G1 X49.691 Y68.678 E35.67193
G1 X49.702 Y67.931 E35.70672
G1 X49.737 Y67.404 E35.73131
G1 X49.878 Y66.514 E35.77327
G1 X50.028 Y65.903 E35.80257
G1 X50.265 Y65.295 E35.83295
G1 X50.611 Y64.604 E35.86894
G1 X50.936 Y64.066 E35.89821
G1 X51.438 Y63.455 E35.93503
G1 X51.811 Y63.068 E35.96006
G1 X52.001 Y62.88 E35.9725
G1 X52.483 Y62.475 E36.00182
M204 S3000
M205 X10 Y10
G0 F3000 X52.843 Y62.906
M204 S1800
M205 X8 Y8
G1 F2400 X53.377 Y62.574 E36.0311
G1 X53.949 Y62.276 E36.06113
G1 X54.071 Y62.217 E36.06744
G1 X54.621 Y61.995 E36.09506
G1 X55.255 Y61.839 E36.12546
G1 X55.858 Y61.744 E36.15388
G1 X56.374 Y61.703 E36.17799
G1 X57.56 Y61.68 E36.23322
G1 X65.472 Y61.68 E36.60164
G1 X66.559 Y61.677 E36.65225
G1 X152.735 Y61.681 E40.66497
G1 X153.509 Y61.693 E40.70101
G1 X154.183 Y61.751 E40.73251
G1 X154.799 Y61.855 E40.7616
G1 X155.374 Y61.998 E40.78919
G1 X155.856 Y62.185 E40.81327
G1 X156.549 Y62.527 E40.84925
G1 X157.056 Y62.834 E40.87685
G1 X157.585 Y63.269 E40.90874
G1 X157.974 Y63.644 E40.9339
G1 X158.145 Y63.818 E40.94526
G1 X158.524 Y64.273 E40.97284
G1 X158.856 Y64.807 E41.00211
G1 X159.142 Y65.354 E41.03086
G1 X159.201 Y65.474 E41.03708
G1 X159.426 Y66.022 E41.06467
G1 X159.591 Y66.688 E41.09662
G1 X159.684 Y67.271 E41.12411
G1 X159.727 Y67.801 E41.14887
G1 X159.75 Y68.99 E41.20424
G1 X159.75 Y76.914 E41.57322
G1 X159.753 Y77.989 E41.62327
G1 X159.749 Y141.352 E44.57372
G1 X159.74 Y141.993 E44.60357
G1 X159.7 Y142.522 E44.62827
G1 X159.613 Y143.164 E44.65844
G1 X159.494 Y143.745 E44.68606
G1 X159.212 Y144.493 E44.72328
G1 X158.981 Y144.966 E44.74779
G1 X158.881 Y145.159 E44.75791
G1 X158.573 Y145.666 E44.78553
G1 X158.131 Y146.2 E44.81781
G1 X157.769 Y146.569 E44.84188
G1 X157.644 Y146.69 E44.84998
G1 X157.191 Y147.073 E44.87761
G1 X156.634 Y147.422 E44.90821
G1 X156.18 Y147.661 E44.9321
G1 X155.4 Y147.981 E44.97136
G1 X155.128 Y148.063 E44.98459
G1 X154.473 Y148.207 E45.01582
G1 X153.572 Y148.309 E45.05804
G1 X153.186 Y148.319 E45.07602
G1 X144.528 Y148.32 E45.47917
G1 X143.441 Y148.323 E45.52979
G1 X57.235 Y148.319 E49.5439
G1 X56.461 Y148.307 E49.57995
G1 X55.811 Y148.252 E49.61032
G1 X55.21 Y148.15 E49.63871
G1 X54.673 Y148.018 E49.66445
G1 X54.638 Y148.007 E49.66616
G1 X54.015 Y147.757 E49.69742
G1 X53.394 Y147.436 E49.72997
G1 X53.199 Y147.32 E49.74054
G1 X52.711 Y146.984 E49.76813
G1 X52.431 Y146.741 E49.78539
G1 X52.013 Y146.347 E49.81214
G1 X51.61 Y145.912 E49.83975
G1 X51.362 Y145.574 E49.85927
G1 X51.085 Y145.109 E49.88447
G1 X50.793 Y144.519 E49.91513
G1 X50.572 Y143.968 E49.94277
G1 X50.442 Y143.468 E49.96683
G1 X50.305 Y142.632 E50.00627
G1 X50.253 Y141.827 E50.04383
G1 X50.251 Y141.699 E50.0498
G1 X50.25 Y133.087 E50.45081
G1 X50.247 Y132.011 E50.50091
G1 X50.251 Y68.614 E53.45294
G1 X50.261 Y67.939 E53.48437
G1 X50.318 Y67.266 E53.51582
G1 X50.429 Y66.613 E53.54667
G1 X50.573 Y66.038 E53.57427
G1 X50.772 Y65.532 E53.59959
G1 X51.107 Y64.863 E53.63442
G1 X51.416 Y64.357 E53.66203
G1 X51.841 Y63.844 E53.69305
G1 X52.214 Y63.457 E53.71808
G1 X52.388 Y63.285 E53.72947
G1 X52.843 Y62.906 E53.75705
M204 S3000
M205 X10 Y10
G0 F3000 X53.202 Y63.338
M204 S1800
M205 X8 Y8
G1 F2400 X53.638 Y63.07 E53.78088
G1 X54.193 Y62.78 E53.81004
G1 X54.315 Y62.721 E53.81635
G1 X54.83 Y62.516 E53.84216
G1 X55.348 Y62.391 E53.86697
G1 X55.934 Y62.298 E53.8946
G1 X56.385 Y62.263 E53.91566
G1 X57.56 Y62.24 E53.97038
G1 X65.473 Y62.24 E54.33885
G1 X66.559 Y62.237 E54.38942
G1 X152.794 Y62.241 E58.40488
G1 X153.5 Y62.252 E58.43776
G1 X154.113 Y62.307 E58.46642
G1 X154.701 Y62.406 E58.49418
G1 X155.238 Y62.543 E58.51999
G1 X155.785 Y62.768 E58.54753
G1 X156.292 Y63.025 E58.574
G1 X156.765 Y63.314 E58.59981
G1 X157.196 Y63.672 E58.6259
G1 X157.585 Y64.047 E58.65106
G1 X157.74 Y64.205 E58.66136
G1 X158.092 Y64.632 E58.68713
G1 X158.36 Y65.068 E58.71096
G1 X158.639 Y65.601 E58.73897
G1 X158.698 Y65.721 E58.7452
G1 X158.906 Y66.234 E58.77098
G1 X159.039 Y66.78 E58.79714
G1 X159.13 Y67.35 E58.82402
G1 X159.167 Y67.812 E58.8456
G1 X159.19 Y68.99 E58.90047
G1 X159.19 Y76.914 E59.26944
G1 X159.193 Y77.989 E59.3195
G1 X159.189 Y141.344 E62.26957
G1 X159.18 Y141.985 E62.29942
G1 X159.145 Y142.447 E62.321
G1 X159.058 Y143.089 E62.35116
G1 X158.944 Y143.631 E62.37695
G1 X158.708 Y144.249 E62.40776
G1 X158.484 Y144.709 E62.43158
G1 X158.384 Y144.902 E62.4417
G1 X158.094 Y145.374 E62.4675
G1 X157.729 Y145.81 E62.49398
G1 X157.255 Y146.288 E62.52532
G1 X156.83 Y146.644 E62.55114
G1 X156.373 Y146.927 E62.57617
G1 X155.919 Y147.166 E62.60006
G1 X155.238 Y147.445 E62.63432
G1 X154.966 Y147.527 E62.64755
G1 X154.395 Y147.652 E62.67477
G1 X153.553 Y147.749 E62.71424
G1 X153.185 Y147.759 E62.73138
G1 X144.527 Y147.76 E63.13453
G1 X143.441 Y147.763 E63.1851
G1 X57.176 Y147.759 E67.20196
G1 X56.469 Y147.748 E67.23489
G1 X55.881 Y147.697 E67.26237
G1 X55.31 Y147.599 E67.28934
G1 X54.806 Y147.472 E67.31355
G1 X54.262 Y147.255 E67.34082
G1 X53.681 Y146.955 E67.37127
G1 X53.486 Y146.839 E67.38183
G1 X53.031 Y146.522 E67.40765
G1 X52.815 Y146.333 E67.42102
G1 X52.397 Y145.939 E67.44776
G1 X52.023 Y145.531 E67.47354
G1 X51.583 Y144.853 E67.51117
G1 X51.297 Y144.276 E67.54116
G1 X51.093 Y143.761 E67.56695
G1 X50.955 Y143.178 E67.59485
G1 X50.859 Y142.552 E67.62434
G1 X50.813 Y141.811 E67.65891
G1 X50.811 Y141.698 E67.66417
G1 X50.81 Y133.086 E68.06518
G1 X50.807 Y132.011 E68.11524
G1 X50.811 Y68.622 E71.0669
G1 X50.821 Y67.947 E71.09833
G1 X50.874 Y67.334 E71.12698
G1 X50.98 Y66.713 E71.15632
G1 X51.117 Y66.176 E71.18212
G1 X51.358 Y65.602 E71.21111
G1 X51.604 Y65.122 E71.23623
G1 X51.895 Y64.651 E71.26201
G1 X52.244 Y64.232 E71.2874
G1 X52.617 Y63.845 E71.31243
G1 X52.775 Y63.69 E71.32273
G1 X53.202 Y63.338 E71.3485
M204 S3000
M205 X10 Y10
G0 F3000 X53.558 Y63.772
M204 S1800
M205 X8 Y8
G1 F2400 X54.338 Y63.334 E71.39016
G1 X54.559 Y63.225 E71.40163
G1 X55.036 Y63.039 E71.42547
G1 X55.78 Y62.887 E71.46083
G1 X56.396 Y62.823 E71.48967
G1 X57.56 Y62.8 E71.54388
G1 X65.475 Y62.8 E71.91243
G1 X66.559 Y62.797 E71.96291
G1 X152.785 Y62.801 E75.97795
G1 X153.491 Y62.812 E76.01083
G1 X154.042 Y62.862 E76.03659
G1 X154.603 Y62.958 E76.0631
G1 X155.098 Y63.086 E76.0869
G1 X155.694 Y63.346 E76.11718
G1 X156.035 Y63.522 E76.13505
G1 X156.47 Y63.792 E76.15889
G1 X156.807 Y64.076 E76.17941
G1 X157.196 Y64.451 E76.20457
G1 X157.335 Y64.591 E76.21376
G1 X157.658 Y64.988 E76.23759
G1 X158.096 Y65.768 E76.27924
G1 X158.195 Y65.968 E76.28963
G1 X158.385 Y66.443 E76.31346
G1 X158.544 Y67.213 E76.35007
G1 X158.607 Y67.823 E76.37862
G1 X158.63 Y68.99 E76.43297
G1 X158.63 Y76.914 E76.80195
G1 X158.633 Y77.989 E76.85201
G1 X158.629 Y141.336 E79.80171
G1 X158.62 Y141.977 E79.83156
G1 X158.59 Y142.371 E79.84996
G1 X158.503 Y143.013 E79.88012
G1 X158.395 Y143.514 E79.90399
G1 X158.204 Y144.005 E79.92852
G1 X157.886 Y144.644 E79.96176
G1 X157.616 Y145.079 E79.9856
G1 X157.063 Y145.693 E80.02407
G1 X156.865 Y145.886 E80.03695
G1 X156.471 Y146.212 E80.06076
G1 X156.112 Y146.431 E80.08034
G1 X155.658 Y146.67 E80.10423
G1 X155.077 Y146.908 E80.13347
G1 X154.317 Y147.098 E80.16995
G1 X153.535 Y147.189 E80.2066
G1 X153.185 Y147.199 E80.22291
G1 X144.525 Y147.2 E80.62615
G1 X143.441 Y147.203 E80.67663
G1 X57.185 Y147.199 E84.69307
G1 X56.478 Y147.188 E84.726
G1 X55.951 Y147.141 E84.75063
G1 X55.409 Y147.048 E84.77624
G1 X54.974 Y146.938 E84.79713
G1 X54.509 Y146.752 E84.82045
G1 X53.967 Y146.474 E84.84882
G1 X53.772 Y146.358 E84.85938
G1 X53.199 Y145.926 E84.8928
G1 X52.781 Y145.532 E84.91954
G1 X52.32 Y144.991 E84.95264
G1 X51.97 Y144.379 E84.98547
G1 X51.802 Y144.033 E85.00338
G1 X51.616 Y143.556 E85.02722
G1 X51.474 Y142.896 E85.05865
G1 X51.381 Y142.101 E85.09593
G1 X51.371 Y141.698 E85.1147
G1 X51.37 Y133.086 E85.51571
G1 X51.367 Y132.011 E85.56576
G1 X51.371 Y68.63 E88.51705
G1 X51.381 Y67.955 E88.54848
G1 X51.43 Y67.402 E88.57433
G1 X51.531 Y66.812 E88.60221
G1 X51.661 Y66.317 E88.62604
G1 X51.865 Y65.839 E88.65024
G1 X52.1 Y65.381 E88.67421
G1 X52.372 Y64.947 E88.69806
G1 X52.647 Y64.621 E88.71792
G1 X53.02 Y64.234 E88.74294
G1 X53.161 Y64.095 E88.75216
G1 X53.558 Y63.772 E88.776
M204 S3000
M205 X10 Y10
G0 F3000 X53.911 Y64.209
M204 S1800
M205 X8 Y8
G1 F2400 X54.598 Y63.83 E88.81253
G1 X55.238 Y63.563 E88.84482
G1 X55.873 Y63.439 E88.87495
G1 X56.408 Y63.383 E88.9
G1 X57.56 Y63.36 E88.95365
G1 X65.476 Y63.36 E89.32225
G1 X66.559 Y63.357 E89.37268
G1 X152.776 Y63.361 E93.3873
G1 X153.482 Y63.372 E93.42018
G1 X154.106 Y63.438 E93.4494
G1 X154.505 Y63.509 E93.46827
G1 X155.158 Y63.713 E93.50013
G1 X155.779 Y64.02 E93.53238
G1 X156.173 Y64.268 E93.55406
G1 X156.419 Y64.479 E93.56915
G1 X156.808 Y64.854 E93.59431
G1 X157.221 Y65.341 E93.62405
G1 X157.6 Y66.028 E93.66058
G1 X157.862 Y66.649 E93.69197
G1 X157.992 Y67.305 E93.72311
G1 X158.047 Y67.835 E93.74792
G1 X158.07 Y68.99 E93.80171
G1 X158.07 Y76.914 E94.17068
G1 X158.073 Y77.989 E94.22074
G1 X158.069 Y141.328 E97.17007
G1 X158.06 Y141.969 E97.19992
G1 X158.035 Y142.296 E97.21519
G1 X157.948 Y142.938 E97.24536
G1 X157.846 Y143.393 E97.26707
G1 X157.521 Y144.129 E97.30454
G1 X157.14 Y144.78 E97.33966
G1 X156.661 Y145.303 E97.37268
G1 X156.114 Y145.778 E97.40642
G1 X155.851 Y145.936 E97.4207
G1 X155.397 Y146.175 E97.44459
G1 X154.915 Y146.372 E97.46884
G1 X154.238 Y146.543 E97.50135
G1 X153.516 Y146.63 E97.53522
G1 X153.185 Y146.639 E97.55063
G1 X144.524 Y146.64 E97.95393
G1 X143.441 Y146.643 E98.00436
G1 X57.194 Y146.639 E102.02038
G1 X56.487 Y146.628 E102.0533
G1 X55.88 Y146.564 E102.08172
G1 X55.176 Y146.415 E102.11523
G1 X54.443 Y146.096 E102.15245
G1 X54.058 Y145.877 E102.17308
G1 X53.583 Y145.518 E102.2008
G1 X53.165 Y145.124 E102.22755
G1 X52.783 Y144.676 E102.25497
G1 X52.468 Y144.123 E102.2846
G1 X52.306 Y143.79 E102.30184
G1 X52.089 Y143.141 E102.33371
G1 X51.968 Y142.392 E102.36904
G1 X51.932 Y141.778 E102.39768
G1 X51.93 Y133.086 E102.80241
G1 X51.927 Y132.011 E102.85247
G1 X51.931 Y68.639 E105.80333
G1 X51.941 Y67.964 E105.83477
G1 X52.009 Y67.317 E105.86506
G1 X52.204 Y66.462 E105.9059
G1 X52.425 Y65.97 E105.93101
G1 X52.847 Y65.247 E105.96999
G1 X53.051 Y65.009 E105.98459
